X:1
T:Johnny Cope
R:hornpipe
M:C|
L:1/8
K:Ador
|:EG|A2AB A2Bd|efed B2AG|EGGF G2GB|BAGB dBAG|
A2AB A2Bd|efed B2d2|(3efg fa gedB|1 BAAB AG:|2 BAAG A2AB|]
|:cBcd c2AG|cdef gedB|cBAc e2ed|cdec dBGB|
cBcd c2AG|cdef gedg|eaag (3efg dB|BAAG A2AB:|
|:cdcB ABAG|ABcd (3efg dc|BG~G2 dG~G2|cdec dBGB|
cdcB ABAG|ABcd (3efg dg|eaag (3efg dB|1 BAAG A2AB:|2 BAAG A2 (3Bcd|]
|:eaag a2ga|bgaf g2ed|eggf gaba|gabg aged|
eaag a2ga|bgaf g2ge|d2ef gedB|1 BAAG A2 (3Bcd:|2 BAAB A2ag|]
|:e2 (3eee feed|e2~e2 fedB|d3e dBAB|defd edBd|
e3e fedB|eaae fedB|ABdf efdB|1 BAAB A2ag:|2 BAAB A2 (3efg|]
|:a2e2 efge|a2e2 efag|f2d2 d^cde|fdd^c d2 (3efg|
a2e2 efge|a2e2 efdB|ABdf efdB|1 BAAB A2 (3efg:|2 BAAB AG|]
